public/assets/images/icons/yellow/visibility-invisible/module.svg

<svg width="16" height="16" xmlns="http://www.w3.org/2000/svg" viewBox="0 0 16 16" shape-rendering="geometricPrecision" fill="#ffad00"><defs><mask id="a"><rect fill="#fff" width="100%" height="100%"/><path d="M12.997.858a4.809 4.809 0 0 0-4.253 2.563 4.81 4.81 0 0 0 8.506 0A4.812 4.812 0 0 0 12.997.858z" fill="#000"/></mask></defs><path d="M12.997 1.611a3.394 3.394 0 0 0-3.003 1.81 3.397 3.397 0 0 0 6.006 0 3.398 3.398 0 0 0-3.003-1.81zm-.001 3.396a1.587 1.587 0 1 1 0-3.174 1.587 1.587 0 0 1 0 3.174z" fill="#cb1800"/><g mask="url(#a)"><path d="M1.979 7.695a4.662 4.662 0 0 1 4.663-4.661h.001V1.056h-.001a6.644 6.644 0 0 0-6.641 6.64v.002h1.978v-.003zm6.332 4.157a2.492 2.492 0 1 0 0-4.986V9.36H5.814a2.498 2.498 0 0 0 2.497 2.492zm0-9.134v1.978a4.663 4.663 0 1 1-4.665 4.665H1.668a6.642 6.642 0 0 0 13.281-.003 6.643 6.643 0 0 0-6.638-6.64z"/></g></svg>

<?xml version="1.0"?><!DOCTYPE svg PUBLIC "-//W3C//DTD SVG 1.1//EN" "http://www.w3.org/Graphics/SVG/1.1/DTD/svg11.dtd"><svg width="16px" height="16px" xmlns="http://www.w3.org/2000/svg" viewBox="0 0 16 16" shape-rendering="geometricPrecision" fill="#ffad00"><defs><mask id="visibility-invisible-path"><rect fill="#fff" width="100%" height="100%"/><path d="M12.997,0.858c-1.845,0-3.446,1.039-4.253,2.563c0.808,1.523,2.408,2.562,4.253,2.562 c1.844,0,3.444-1.039,4.253-2.562C16.441,1.897,14.841,0.858,12.997,0.858z" fill="#000"/></mask></defs><g id="visibility-invisible" display="inline" fill="#cb1800"><g><g><path d="M12.997,1.611c-1.303,0-2.433,0.733-3.003,1.81c0.57,1.075,1.7,1.809,3.003,1.809c1.302,0,2.432-0.733,3.003-1.809 C15.429,2.345,14.299,1.611,12.997,1.611z M12.996,5.007c-0.876,0-1.587-0.71-1.587-1.586c0-0.877,0.711-1.588,1.587-1.588 c0.877,0,1.588,0.711,1.588,1.588C14.584,4.297,13.873,5.007,12.996,5.007z"/></g></g></g><g mask="url(#visibility-invisible-path)"><g><path d="M1.979,7.695c0-2.574,2.088-4.661,4.663-4.661h0.001V1.056H6.642c-3.665,0-6.641,2.975-6.641,6.64v0.002h1.978V7.695z M8.311,11.852c1.375,0,2.492-1.118,2.492-2.494c0-1.377-1.117-2.492-2.492-2.492V9.36H5.814 C5.816,10.735,6.934,11.852,8.311,11.852z M8.311,2.718v1.978c2.572,0,4.661,2.087,4.661,4.662c0,2.576-2.089,4.663-4.661,4.663 c-2.575,0-4.664-2.086-4.665-4.66H1.668c0.002,3.665,2.977,6.637,6.643,6.637c3.662,0,6.638-2.973,6.638-6.64 C14.948,5.693,11.974,2.718,8.311,2.718z"/></g></g></svg>
